X: 7
T: Climb Up Golden Stairs
I: Climb Up Golden Stairs	S-C	G	square
C: S-C
M: C|
Z: Transcribed to abc by Mary Lou Knack
R: square
K: G
d4 |: "G"e2d2 d2c2| B2 d4 d2| e2d2 d2c2| B2 d4 d2| \
         G2G2 G2G2| B4 d4| "D7"A8-| A4 A2B2|
      "D7"c2B2 A2G2| F2 A4 B2| c2B2 A2G2| F2 A4 A2| \
          d2e2 d2c2| B4 A4 | "G"G8- |1 G4 d2d2 :|2 G4 |]
\
D4| "G"G6 B2| d6 B2| "D7"B2A2 A2^G2| A8| \
       A6 c2| f4 e4| "G"e2d2 d2^c2| d8|
    "G"G6 B2| d6 B2| "D7"B2A2 A2^G2| A4 B2c2| \
       d2e2 d2c2| B4 A4| "G"G8-| G4|]
% %text $19/1/98

#include "LeftHeader.h"
$SmallLMargin
$SmallRMargin
% %scale .8
